mimetypes/64/text-x-script.svg

<?xml version="1.0" encoding="UTF-8" standalone="no"?>
<!-- Created with Inkscape (http://www.inkscape.org/) -->

<svg
   xmlns:dc="http://purl.org/dc/elements/1.1/"
   xmlns:cc="http://creativecommons.org/ns#"
   xmlns:rdf="http://www.w3.org/1999/02/22-rdf-syntax-ns#"
   xmlns:svg="http://www.w3.org/2000/svg"
   xmlns="http://www.w3.org/2000/svg"
   xmlns:sodipodi="http://sodipodi.sourceforge.net/DTD/sodipodi-0.dtd"
   xmlns:inkscape="http://www.inkscape.org/namespaces/inkscape"
   version="1.1"
   width="64"
   height="64"
   id="svg13094"
   inkscape:version="0.48.4 r9939"
   sodipodi:docname="text-x-script.svg">
  <sodipodi:namedview
     pagecolor="#ffffff"
     bordercolor="#666666"
     borderopacity="1"
     objecttolerance="10"
     gridtolerance="10"
     guidetolerance="10"
     inkscape:pageopacity="0"
     inkscape:pageshadow="2"
     inkscape:window-width="1920"
     inkscape:window-height="1022"
     id="namedview37"
     showgrid="true"
     showborder="false"
     inkscape:snap-bbox="true"
     inkscape:bbox-paths="true"
     inkscape:bbox-nodes="true"
     inkscape:snap-bbox-edge-midpoints="true"
     inkscape:snap-bbox-midpoints="true"
     inkscape:object-paths="true"
     inkscape:snap-intersection-paths="true"
     inkscape:object-nodes="true"
     inkscape:snap-smooth-nodes="true"
     inkscape:snap-midpoints="true"
     inkscape:snap-object-midpoints="true"
     inkscape:snap-center="true"
     inkscape:zoom="10.429825"
     inkscape:cx="41.075153"
     inkscape:cy="35.292239"
     inkscape:window-x="-5"
     inkscape:window-y="23"
     inkscape:window-maximized="1"
     inkscape:current-layer="svg13094"
     inkscape:snap-global="true">
    <inkscape:grid
       type="xygrid"
       id="grid3881" />
  </sodipodi:namedview>
  <defs
     id="defs11">
    <linearGradient
       x1="48.917568"
       y1="46.213669"
       x2="32.669781"
       y2="24"
       id="linearGradient4259"
       gradientUnits="userSpaceOnUse">
      <stop
         id="stop3988"
         style="stop-color:#ffffff;stop-opacity:0.52975047"
         offset="0" />
      <stop
         id="stop3990"
         style="stop-color:#ffffff;stop-opacity:0"
         offset="1" />
    </linearGradient>
  </defs>
  <metadata
     id="metadata13099">
    <rdf:RDF>
      <cc:Work
         rdf:about="">
        <dc:format>image/svg+xml</dc:format>
        <dc:type
           rdf:resource="http://purl.org/dc/dcmitype/StillImage" />
        <dc:title />
      </cc:Work>
    </rdf:RDF>
  </metadata>
  <path
     d="M 4,0 64,0 64,62 4,62 z"
     id="path3960"
     style="fill:#236c84;fill-opacity:1;fill-rule:nonzero" />
  <path
     style="fill:#001a23;fill-rule:nonzero;fill-opacity:0.15742397"
     d="M 60 2 L 60 33 L 35.677734 62 L 64 62 L 64 37 L 64 6 L 60 2 z "
     id="path3900" />
  <path
     d="M 0,2 60,2 60,33 34,64 0,64 z"
     id="path4257"
     style="fill:url(#linearGradient4259);fill-rule:nonzero" />
  <path
     d="M 0,2 60,2 60,33 34,64 0,64 z"
     id="path3982"
     style="fill:#3e8aa3;fill-rule:nonzero;color:#000000;fill-opacity:1;stroke:none;stroke-width:1;marker:none;visibility:visible;display:inline;overflow:visible;enable-background:accumulate" />
  <path
     style="font-size:31.84835243px;font-style:normal;font-variant:normal;font-weight:normal;font-stretch:normal;line-height:125%;letter-spacing:0px;word-spacing:0px;fill:#cce5f6;fill-opacity:1;stroke:none;font-family:Futura LT;-inkscape-font-specification:Futura LT"
     d="M 6.71875 7.3125 L 5.28125 8.6875 L 13.71875 17.375 L 5.28125 26.0625 L 6.71875 27.4375 L 15.8125 18.0625 L 16.46875 17.375 L 15.8125 16.6875 L 6.71875 7.3125 z M 19 28 L 19 30 L 27 30 L 27 28 L 19 28 z "
     id="path3790" />
  <path
     d="M 34,64 60,33 c -2.328567,2.776369 -4.36141,3 -11,3 H 37 v 15 c 0,6.644068 0.04437,9.370179 -3,13 z"
     id="path4278"
     style="fill:#25718b;fill-rule:nonzero;fill-opacity:1" />
</svg>

<?xml version="1.0" encoding="UTF-8"?>
<!-- Created with Inkscape (http://www.inkscape.org/) -->
<svg width="64" height="64" version="1.1" xmlns="http://www.w3.org/2000/svg" xmlns:cc="http://creativecommons.org/ns#" xmlns:dc="http://purl.org/dc/elements/1.1/" xmlns:rdf="http://www.w3.org/1999/02/22-rdf-syntax-ns#" xmlns:xlink="http://www.w3.org/1999/xlink">
	<defs>
		<linearGradient id="c" x1="52.446" x2="41.42" y1="42.14" y2="33.031" gradientUnits="userSpaceOnUse">
			<stop stop-color="#3c4d4a" offset="0"/>
			<stop stop-color="#3b4a47" offset=".27551"/>
			<stop stop-color="#415754" offset="1"/>
		</linearGradient>
		<linearGradient id="b" x1="48.918" x2="44.839" y1="46.214" y2="42.61" gradientUnits="userSpaceOnUse">
			<stop stop-color="#497f76" offset="0"/>
			<stop stop-color="#4d6763" stop-opacity=".005307" offset="1"/>
		</linearGradient>
		<radialGradient id="a" cx="32.24" cy="-27.52" r="30" gradientTransform="matrix(4.3066 0 0 .33333 -138.84 18.173)" gradientUnits="userSpaceOnUse">
			<stop stop-color="#558477" offset="0"/>
			<stop stop-color="#566e67" stop-opacity=".0060652" offset="1"/>
		</radialGradient>
		<linearGradient id="d" x1="48.672" x2="64" y1="46.506" y2="51.119" gradientUnits="userSpaceOnUse">
			<stop stop-color="#001a23" stop-opacity=".21683" offset="0"/>
			<stop stop-color="#001a23" stop-opacity="0" offset="1"/>
		</linearGradient>
	</defs>
	<metadata>
		<rdf:RDF>
			<cc:Work rdf:about="">
				<dc:format>image/svg+xml</dc:format>
				<dc:type rdf:resource="http://purl.org/dc/dcmitype/StillImage"/>
				<dc:title/>
			</cc:Work>
		</rdf:RDF>
	</metadata>
	<path d="m4 0h60v62h-60z" fill="#3f4c4a"/>
	<rect x="4" width="60" height="6" rx="0" ry="0" fill="#973b44" style="paint-order:normal"/>
	<path d="m60 2v31l-24.322 29h28.322v-25-31l-4-4z" fill="url(#d)"/>
	<path d="m0 2h60v31l-26 31h-34z" color="#000000" fill="#4d6763"/>
	<path d="m0 2h60v31l-26 31h-34z" fill="url(#a)"/>
	<path d="m0 2h60v31l-26 31h-34z" fill="url(#b)"/>
	<path d="m34 64 26-31c-2.3286 2.7764-4.3614 3-11 3h-12v15c0 6.6441 0.04437 9.3702-3 13z" fill="url(#c)"/>
	<path d="m14 30h-4v-14h4m5.2854-0.5 7.5 7.5-7.5 7.5" fill="none" stroke="#d5ffff" stroke-width="2" style="paint-order:normal"/>
	<rect y="2" width="60" height="6" rx="0" ry="0" fill="#bc3c53" style="paint-order:normal"/>
</svg>
